assets/images/bi_apple.svg

<svg width="29" height="28" viewBox="0 0 29 28" fill="none" xmlns="http://www.w3.org/2000/svg">
<g id="bi:apple" clip-path="url(#clip0_191_1226)">
<g id="Vector">
<path d="M20.0686 0.0140123C20.0091 -0.0524877 17.8654 0.0402622 15.9999 2.06501C14.1344 4.08801 14.4214 6.40851 14.4634 6.46801C14.5054 6.52751 17.1234 6.62026 18.7946 4.26651C20.4659 1.91276 20.1281 0.0822623 20.0686 0.0140123ZM25.8681 20.5468C25.7841 20.3788 21.7994 18.3873 22.1704 14.5583C22.5414 10.7275 25.1016 9.67751 25.1419 9.56376C25.1821 9.45001 24.0971 8.18126 22.9474 7.53901C22.1032 7.0862 21.1689 6.82678 20.2121 6.77951C20.0231 6.77426 19.3669 6.61326 18.0176 6.98251C17.1286 7.22576 15.1249 8.01326 14.5736 8.04476C14.0206 8.07626 12.3756 7.13126 10.6064 6.88101C9.47411 6.66226 8.27361 7.11026 7.41436 7.45501C6.55686 7.79801 4.92586 8.77451 3.78486 11.3698C2.64386 13.9633 3.24061 18.0723 3.66761 19.3498C4.09461 20.6255 4.76136 22.7168 5.89536 24.2428C6.90336 25.9648 8.24036 27.16 8.79861 27.566C9.35686 27.972 10.9319 28.2415 12.0239 27.6833C12.9024 27.1443 14.4879 26.8345 15.1144 26.8573C15.7391 26.88 16.9711 27.1268 18.2329 27.8005C19.2321 28.1453 20.1771 28.0018 21.1239 27.6168C22.0706 27.23 23.4409 25.7635 25.0404 22.7903C25.6476 21.4078 25.9241 20.6605 25.8681 20.5468Z" fill="#323232"/>
<path d="M20.0686 0.0140123C20.0091 -0.0524877 17.8654 0.0402622 15.9999 2.06501C14.1344 4.08801 14.4214 6.40851 14.4634 6.46801C14.5054 6.52751 17.1234 6.62026 18.7946 4.26651C20.4659 1.91276 20.1281 0.0822623 20.0686 0.0140123ZM25.8681 20.5468C25.7841 20.3788 21.7994 18.3873 22.1704 14.5583C22.5414 10.7275 25.1016 9.67751 25.1419 9.56376C25.1821 9.45001 24.0971 8.18126 22.9474 7.53901C22.1032 7.0862 21.1689 6.82678 20.2121 6.77951C20.0231 6.77426 19.3669 6.61326 18.0176 6.98251C17.1286 7.22576 15.1249 8.01326 14.5736 8.04476C14.0206 8.07626 12.3756 7.13126 10.6064 6.88101C9.47411 6.66226 8.27361 7.11026 7.41436 7.45501C6.55686 7.79801 4.92586 8.77451 3.78486 11.3698C2.64386 13.9633 3.24061 18.0723 3.66761 19.3498C4.09461 20.6255 4.76136 22.7168 5.89536 24.2428C6.90336 25.9648 8.24036 27.16 8.79861 27.566C9.35686 27.972 10.9319 28.2415 12.0239 27.6833C12.9024 27.1443 14.4879 26.8345 15.1144 26.8573C15.7391 26.88 16.9711 27.1268 18.2329 27.8005C19.2321 28.1453 20.1771 28.0018 21.1239 27.6168C22.0706 27.23 23.4409 25.7635 25.0404 22.7903C25.6476 21.4078 25.9241 20.6605 25.8681 20.5468Z" fill="#323232"/>
</g>
</g>
<defs>
<clipPath id="clip0_191_1226">
<rect width="28" height="28" fill="white" transform="translate(0.5)"/>
</clipPath>
</defs>
</svg>

<svg xmlns="http://www.w3.org/2000/svg" width="29" height="28" fill="none"><g fill="#323232" clip-path="url(#a)"><path d="M20.069.014c-.06-.066-2.204.026-4.07 2.051-1.865 2.023-1.578 4.344-1.536 4.403.042.06 2.66.152 4.332-2.201 1.67-2.354 1.333-4.185 1.274-4.253Zm5.8 20.533c-.085-.168-4.07-2.16-3.699-5.989.371-3.83 2.932-4.88 2.972-4.994.04-.114-1.045-1.383-2.195-2.025a6.461 6.461 0 0 0-2.735-.76c-.189-.005-.845-.166-2.194.204-.89.243-2.893 1.03-3.444 1.062-.553.031-2.198-.914-3.968-1.164-1.132-.219-2.332.23-3.192.574-.857.343-2.488 1.32-3.63 3.915-1.14 2.593-.543 6.702-.116 7.98.427 1.275 1.093 3.367 2.227 4.893C6.903 25.965 8.24 27.16 8.8 27.566c.558.406 2.133.675 3.225.117.878-.539 2.464-.849 3.09-.826.625.023 1.857.27 3.119.944 1 .344 1.944.2 2.89-.184.948-.387 2.318-1.854 3.917-4.827.608-1.382.884-2.13.828-2.243Z"/><path d="M20.069.014c-.06-.066-2.204.026-4.07 2.051-1.865 2.023-1.578 4.344-1.536 4.403.042.06 2.66.152 4.332-2.201 1.67-2.354 1.333-4.185 1.274-4.253Zm5.8 20.533c-.085-.168-4.07-2.16-3.699-5.989.371-3.83 2.932-4.88 2.972-4.994.04-.114-1.045-1.383-2.195-2.025a6.461 6.461 0 0 0-2.735-.76c-.189-.005-.845-.166-2.194.204-.89.243-2.893 1.03-3.444 1.062-.553.031-2.198-.914-3.968-1.164-1.132-.219-2.332.23-3.192.574-.857.343-2.488 1.32-3.63 3.915-1.14 2.593-.543 6.702-.116 7.98.427 1.275 1.093 3.367 2.227 4.893C6.903 25.965 8.24 27.16 8.8 27.566c.558.406 2.133.675 3.225.117.878-.539 2.464-.849 3.09-.826.625.023 1.857.27 3.119.944 1 .344 1.944.2 2.89-.184.948-.387 2.318-1.854 3.917-4.827.608-1.382.884-2.13.828-2.243Z"/></g><defs><clipPath id="a"><path fill="#fff" d="M.5 0h28v28H.5z"/></clipPath></defs></svg>
